src/icons/SVG/64px/Universe_ChristmasTree_64px.svg

<svg width="64" height="64" viewBox="0 0 64 64" fill="none" xmlns="http://www.w3.org/2000/svg">
<g id="Square"> </g>
<g id="Icon">
<path id="Union" fill-rule="evenodd" clip-rule="evenodd" d="M33.1997 7.1C32.9164 6.72229 32.4718 6.5 31.9997 6.5C31.5275 6.5 31.083 6.72229 30.7997 7.1L22.7997 17.7667C22.3518 18.3638 22.4112 19.1995 22.939 19.7273C23.7044 20.4927 24.8043 21.0152 25.9706 21.3743L17.5375 31.0122C17.0175 31.6066 17.0473 32.5023 17.6057 33.0607C18.6118 34.0668 19.8961 34.8765 21.333 35.514V35.6667C21.4499 35.6667 21.5662 35.6658 21.6819 35.6642C21.8301 35.7261 21.9798 35.7863 22.1308 35.8447L12.2119 47.0035C11.9236 47.3278 11.7899 47.7612 11.8453 48.1916C11.9007 48.622 12.1399 49.0073 12.501 49.2481C14.728 50.7328 17.773 51.7839 21.1149 52.4694C24.0306 53.0675 27.2506 53.403 30.4997 53.4818V56C30.4997 56.8284 31.1713 57.5 31.9997 57.5C32.8281 57.5 33.4997 56.8284 33.4997 56V53.4818C36.7487 53.403 39.9687 53.0675 42.8844 52.4694C46.2263 51.7839 49.2713 50.7328 51.4984 49.2481C51.8595 49.0074 52.0986 48.622 52.1541 48.1916C52.2095 47.7612 52.0758 47.3278 51.7875 47.0035L41.8686 35.8447C43.6273 35.1643 45.2047 34.2496 46.3937 33.0607C46.9521 32.5023 46.9819 31.6066 46.4619 31.0122L38.0287 21.3743C39.195 21.0152 40.295 20.4927 41.0603 19.7273C41.5882 19.1995 41.6476 18.3638 41.1997 17.7667L33.1997 7.1ZM31.9997 34.5C30.9745 34.5 29.9532 34.4483 28.9569 34.3461C33.7761 32.5458 36.8853 29.2336 38.5349 26.5086L43.1861 31.8243C42.1571 32.5199 40.8246 33.109 39.2543 33.5577C37.0752 34.1803 34.5497 34.5 31.9997 34.5ZM24.387 33.4517C31.4485 32.429 35.49 27.9788 37.1438 24.9188L34.8708 22.3211C34.791 22.2298 34.7242 22.1316 34.6702 22.0287C33.7958 22.1214 32.8941 22.1667 31.9997 22.1667C31.1053 22.1667 30.2036 22.1214 29.3291 22.0287C29.2752 22.1316 29.2084 22.2298 29.1285 22.3211L20.8133 31.8243C21.7631 32.4664 22.9716 33.0178 24.387 33.4517ZM38.7225 36.7871C36.5927 37.2655 34.2879 37.5 31.9997 37.5C29.7114 37.5 27.4066 37.2655 25.2769 36.7871C25.2318 36.8601 25.1798 36.9302 25.1208 36.9965L23.9448 38.3196C24.9818 41.353 28.0409 44.0375 32.2421 45.9208C36.3998 47.7846 41.4581 48.7553 46.1418 48.4962C46.9297 48.2251 47.6566 47.9295 48.3139 47.6113L38.8786 36.9965C38.8196 36.9302 38.7676 36.8601 38.7225 36.7871ZM39.106 50.0565C36.4089 49.5919 33.783 48.8034 31.424 47.7458C27.434 45.9573 24.0234 43.3082 22.4632 39.9864L15.6854 47.6113C17.3131 48.3992 19.3668 49.0483 21.7178 49.5306C24.8537 50.1739 28.4178 50.5 31.9996 50.5C34.4186 50.5 36.8296 50.3512 39.106 50.0565ZM27.5932 18.7065C27.0322 18.5745 26.5604 18.4239 26.1748 18.2665L28.6613 14.9512C29.3461 15.8811 30.1858 16.854 31.1603 17.7399C31.7094 18.2391 32.3093 18.7177 32.9558 19.1471C32.6396 19.1601 32.3202 19.1667 31.9997 19.1667C30.4232 19.1667 28.875 19.0081 27.5932 18.7065ZM29.9209 13.2717L31.9997 10.5L37.8246 18.2665C37.469 18.4117 37.0401 18.5511 36.5354 18.6754C35.0509 18.2237 33.6916 17.3382 32.5057 16.2601C31.4605 15.3099 30.586 14.2417 29.9209 13.2717ZM33.333 26.6667C33.333 27.403 32.7361 28 31.9997 28C31.2633 28 30.6663 27.403 30.6663 26.6667C30.6663 25.9303 31.2633 25.3333 31.9997 25.3333C32.7361 25.3333 33.333 25.9303 33.333 26.6667ZM27.9997 30.6667C28.7361 30.6667 29.333 30.0697 29.333 29.3333C29.333 28.597 28.7361 28 27.9997 28C27.2633 28 26.6663 28.597 26.6663 29.3333C26.6663 30.0697 27.2633 30.6667 27.9997 30.6667ZM34.6663 41.3333C34.6663 42.0697 34.0694 42.6667 33.333 42.6667C32.5966 42.6667 31.9997 42.0697 31.9997 41.3333C31.9997 40.597 32.5966 40 33.333 40C34.0694 40 34.6663 40.597 34.6663 41.3333ZM22.6663 48C23.4027 48 23.9997 47.403 23.9997 46.6667C23.9997 45.9303 23.4027 45.3333 22.6663 45.3333C21.93 45.3333 21.333 45.9303 21.333 46.6667C21.333 47.403 21.93 48 22.6663 48ZM39.9997 44C39.9997 44.7364 39.4027 45.3333 38.6664 45.3333C37.93 45.3333 37.333 44.7364 37.333 44C37.333 43.2636 37.93 42.6667 38.6664 42.6667C39.4027 42.6667 39.9997 43.2636 39.9997 44Z" fill="black"/>
</g>
</svg>

<svg xmlns="http://www.w3.org/2000/svg" viewBox="0 0 64 64">
  <g id="Square"> </g>
  <path fill-rule="evenodd" d="M33.2 7.1a1.5 1.5 0 00-2.4 0l-8 10.667a1.5 1.5 0 00.139 1.96c.765.766 1.865 1.288 3.032 1.647l-8.433 9.638a1.5 1.5 0 00.068 2.049c1.006 1.006 2.29 1.816 3.727 2.453v.153c.117 0 .233-.001.349-.003.148.062.298.122.449.18l-9.92 11.16a1.5 1.5 0 00.29 2.244c2.227 1.485 5.272 2.536 8.614 3.221 2.916.599 6.136.934 9.385 1.013V56a1.5 1.5 0 003 0v-2.518c3.249-.079 6.469-.414 9.384-1.013 3.342-.685 6.387-1.736 8.614-3.22a1.5 1.5 0 00.29-2.245l-9.92-11.16c1.76-.68 3.337-1.594 4.526-2.783a1.5 1.5 0 00.068-2.049l-8.433-9.638c1.166-.359 2.266-.881 3.031-1.647a1.5 1.5 0 00.14-1.96L33.2 7.1zM32 34.5c-1.026 0-2.047-.052-3.043-.154 4.82-1.8 7.928-5.112 9.578-7.837l4.651 5.315c-1.029.696-2.361 1.285-3.932 1.734-2.179.622-4.704.942-7.254.942zm-7.613-1.048c7.061-1.023 11.103-5.473 12.757-8.533L34.87 22.32a1.51 1.51 0 01-.2-.292 25.48 25.48 0 01-2.671.138c-.895 0-1.796-.046-2.67-.138-.055.103-.122.2-.201.292l-8.316 9.503c.95.642 2.159 1.194 3.574 1.628zm14.335 3.335c-2.13.479-4.434.713-6.722.713-2.289 0-4.593-.234-6.723-.713a1.504 1.504 0 01-.156.21l-1.176 1.323c1.037 3.033 4.096 5.718 8.297 7.6 4.158 1.865 9.216 2.835 13.9 2.576a19.736 19.736 0 002.172-.885l-9.435-10.614a1.504 1.504 0 01-.157-.21zm.384 13.27c-2.697-.465-5.323-1.254-7.682-2.311-3.99-1.789-7.4-4.438-8.96-7.76l-6.779 7.625c1.628.788 3.682 1.437 6.033 1.92 3.136.643 6.7.969 10.282.969 2.419 0 4.83-.149 7.106-.444zm-11.513-31.35a9.596 9.596 0 01-1.418-.44l2.486-3.316c.685.93 1.525 1.903 2.5 2.789.548.5 1.148.978 1.795 1.407-.316.013-.636.02-.956.02-1.577 0-3.125-.159-4.407-.46zm2.328-5.435L32 10.5l5.825 7.767a9.34 9.34 0 01-1.29.408c-1.484-.451-2.843-1.337-4.03-2.415a17.344 17.344 0 01-2.584-2.988zm3.412 13.395a1.333 1.333 0 11-2.667 0 1.333 1.333 0 012.667 0zm-5.333 4A1.333 1.333 0 1028 28a1.333 1.333 0 000 2.667zm6.666 10.666a1.333 1.333 0 11-2.666 0 1.333 1.333 0 012.666 0zm-12 6.667a1.333 1.333 0 100-2.667 1.333 1.333 0 000 2.667zM40 44a1.333 1.333 0 11-2.667 0A1.333 1.333 0 0140 44z"/>
</svg>
